img/logo-wht.svg

<svg width="43" height="39" viewBox="0 0 43 39" fill="none" xmlns="http://www.w3.org/2000/svg">
<path d="M0.890015 11H10.58C10.58 11 13.37 16.41 14.41 18.4C16.01 21.4 17.65 24.47 19.27 27.51C19.65 28.22 20.04 28.9199 20.53 29.8199C20.99 28.9799 21.39 28.31 21.75 27.61C23.48 24.26 25.18 20.9 26.92 17.61C27.92 15.72 30.52 11.05 30.52 11.05C33.15 11.05 39.9 11.05 40.29 11.05C38.74 14.05 26.48 38.55 26.21 38.55H14.77C14.17 38.53 0.910015 11.26 0.890015 11Z" fill="white"/>
<path d="M43 0.679373C42.58 3.38937 41 8.74931 36.31 8.73931C-10.69 8.73931 52.31 8.73931 -5.81611e-06 8.73931C-0.0455973 7.65411 0.137452 6.57149 0.537226 5.56158C0.936999 4.55166 1.54455 3.63698 2.32055 2.877C3.09655 2.11703 4.02365 1.52869 5.04168 1.15008C6.05972 0.771466 7.14596 0.611144 8.22997 0.679373C19.45 0.709373 43 0.679373 43 0.679373Z" fill="white"/>
</svg>

<svg width="43" height="39" fill="none" xmlns="http://www.w3.org/2000/svg"><path d="M.89 11h9.69s2.79 5.41 3.83 7.4c1.6 3 3.24 6.07 4.86 9.11.38.71.77 1.41 1.26 2.31.46-.84.86-1.51 1.22-2.21 1.73-3.35 3.43-6.71 5.17-10 1-1.89 3.6-6.56 3.6-6.56h9.77c-1.55 3-13.81 27.5-14.08 27.5H14.77C14.17 38.53.91 11.26.89 11zM43 .68c-.42 2.71-2 8.07-6.69 8.06H0A7.75 7.75 0 018.23.68C19.45.71 43 .68 43 .68z" fill="#fff"/></svg>
